assets/images/number_4.svg

<svg width="234" height="135" viewBox="0 0 234 135" fill="none" xmlns="http://www.w3.org/2000/svg">
<mask id="path-1-outside-1_0_550" maskUnits="userSpaceOnUse" x="-0.74707" y="-0.185547" width="235" height="135" fill="black">
<rect fill="white" x="-0.74707" y="-0.185547" width="235" height="135"/>
<path d="M56.5749 133.063C46.6569 133.063 38.1639 131.467 31.0959 128.275C24.0279 124.969 18.2709 120.523 13.8249 114.937C9.49293 109.351 6.24393 102.91 4.07793 95.6145C2.02593 88.2045 0.99993 80.3955 0.99993 72.1875V62.4404C0.99993 51.0404 2.99493 40.7234 6.98493 31.4894C10.9749 22.2554 17.0739 14.9024 25.2819 9.43044C33.4899 3.95845 43.9209 1.22245 56.5749 1.22245C69.2289 1.22245 79.6029 3.95845 87.6969 9.43044C95.9049 14.9024 102.004 22.2554 105.994 31.4894C109.984 40.7234 111.979 51.0404 111.979 62.4404V72.1875C111.979 80.3955 110.896 88.2045 108.73 95.6145C106.678 102.91 103.429 109.351 98.9829 114.937C94.6509 120.523 88.9509 124.969 81.8829 128.275C74.9289 131.467 66.4929 133.063 56.5749 133.063ZM56.5749 107.242C65.8089 107.242 72.6489 104.05 77.0949 97.6665C81.6549 91.1685 83.9349 81.1365 83.9349 67.5704C83.9349 53.2065 81.5979 42.8895 76.9239 36.6195C72.3639 30.2355 65.5809 27.0435 56.5749 27.0435C47.3409 27.0435 40.4439 30.2355 35.8839 36.6195C31.3239 42.8895 29.0439 53.0925 29.0439 67.2284C29.0439 80.9085 31.2669 90.9975 35.7129 97.4955C40.2729 103.993 47.2269 107.242 56.5749 107.242ZM127.317 105.874V76.6334L174.684 1.39345L196.401 15.5864L155.874 80.0535L158.268 83.6445H232.995V105.874H127.317ZM192.81 129.814V39.8684H218.631V129.814H192.81Z"/>
</mask>
<path d="M56.5749 133.063C46.6569 133.063 38.1639 131.467 31.0959 128.275C24.0279 124.969 18.2709 120.523 13.8249 114.937C9.49293 109.351 6.24393 102.91 4.07793 95.6145C2.02593 88.2045 0.99993 80.3955 0.99993 72.1875V62.4404C0.99993 51.0404 2.99493 40.7234 6.98493 31.4894C10.9749 22.2554 17.0739 14.9024 25.2819 9.43044C33.4899 3.95845 43.9209 1.22245 56.5749 1.22245C69.2289 1.22245 79.6029 3.95845 87.6969 9.43044C95.9049 14.9024 102.004 22.2554 105.994 31.4894C109.984 40.7234 111.979 51.0404 111.979 62.4404V72.1875C111.979 80.3955 110.896 88.2045 108.73 95.6145C106.678 102.91 103.429 109.351 98.9829 114.937C94.6509 120.523 88.9509 124.969 81.8829 128.275C74.9289 131.467 66.4929 133.063 56.5749 133.063ZM56.5749 107.242C65.8089 107.242 72.6489 104.05 77.0949 97.6665C81.6549 91.1685 83.9349 81.1365 83.9349 67.5704C83.9349 53.2065 81.5979 42.8895 76.9239 36.6195C72.3639 30.2355 65.5809 27.0435 56.5749 27.0435C47.3409 27.0435 40.4439 30.2355 35.8839 36.6195C31.3239 42.8895 29.0439 53.0925 29.0439 67.2284C29.0439 80.9085 31.2669 90.9975 35.7129 97.4955C40.2729 103.993 47.2269 107.242 56.5749 107.242ZM127.317 105.874V76.6334L174.684 1.39345L196.401 15.5864L155.874 80.0535L158.268 83.6445H232.995V105.874H127.317ZM192.81 129.814V39.8684H218.631V129.814H192.81Z" fill="white" fill-opacity="0.21"/>
<path d="M31.0959 128.275L30.6722 129.181L30.6843 129.187L31.0959 128.275ZM13.8249 114.937L13.0346 115.55L13.0425 115.56L13.8249 114.937ZM4.07793 95.6145L3.1142 95.8813L3.11666 95.8902L3.11928 95.899L4.07793 95.6145ZM6.98493 31.4894L6.06696 31.0928L6.98493 31.4894ZM25.2819 9.43044L24.7272 8.59839L24.7272 8.59839L25.2819 9.43044ZM87.6969 9.43044L87.1368 10.2589L87.1422 10.2625L87.6969 9.43044ZM105.994 31.4894L105.076 31.8861V31.8861L105.994 31.4894ZM108.73 95.6145L107.77 95.3339L107.767 95.3437L108.73 95.6145ZM98.9829 114.937L98.2005 114.315L98.1927 114.325L98.9829 114.937ZM81.8829 128.275L82.3001 129.184L82.3066 129.181L81.8829 128.275ZM77.0949 97.6665L76.2764 97.092L76.2743 97.095L77.0949 97.6665ZM76.9239 36.6194L76.1102 37.2007L76.1161 37.209L76.1222 37.2171L76.9239 36.6194ZM35.8839 36.6194L36.6927 37.2076L36.6977 37.2007L35.8839 36.6194ZM35.7129 97.4955L34.8876 98.0602L34.8944 98.0699L35.7129 97.4955ZM56.5749 133.063V132.063C46.7607 132.063 38.4154 130.484 31.5075 127.364L31.0959 128.275L30.6843 129.187C37.9124 132.451 46.5531 134.063 56.5749 134.063V133.063ZM31.0959 128.275L31.5196 127.37C24.5782 124.123 18.9485 119.769 14.6074 114.315L13.8249 114.937L13.0425 115.56C17.5933 121.278 23.4776 125.816 30.6722 129.181L31.0959 128.275ZM13.8249 114.937L14.6151 114.325C10.3648 108.844 7.17 102.516 5.03658 95.3299L4.07793 95.6145L3.11928 95.899C5.31786 103.305 8.62105 109.859 13.0347 115.55L13.8249 114.937ZM4.07793 95.6145L5.04166 95.3476C3.0153 88.0302 1.99993 80.3113 1.99993 72.1875H0.99993H-6.96182e-05C-6.96182e-05 80.4796 1.03656 88.3788 3.1142 95.8813L4.07793 95.6145ZM0.99993 72.1875H1.99993V62.4404H0.99993H-6.96182e-05V72.1875H0.99993ZM0.99993 62.4404H1.99993C1.99993 51.1587 3.97377 40.9792 7.9029 31.8861L6.98493 31.4894L6.06696 31.0928C2.01609 40.4677 -6.96182e-05 50.9222 -6.96182e-05 62.4404H0.99993ZM6.98493 31.4894L7.9029 31.8861C11.818 22.8255 17.7925 15.6252 25.8366 10.2625L25.2819 9.43044L24.7272 8.59839C16.3553 14.1797 10.1319 21.6854 6.06696 31.0928L6.98493 31.4894ZM25.2819 9.43044L25.8366 10.2625C33.8396 4.92718 44.0629 2.22245 56.5749 2.22245V1.22245V0.222447C43.7789 0.222447 33.1403 2.98972 24.7272 8.59839L25.2819 9.43044ZM56.5749 1.22245V2.22245C69.0877 2.22245 79.2508 4.92746 87.1369 10.2589L87.6969 9.43044L88.257 8.602C79.9551 2.98943 69.3701 0.222447 56.5749 0.222447V1.22245ZM87.6969 9.43044L87.1422 10.2625C95.1863 15.6252 101.161 22.8255 105.076 31.8861L105.994 31.4894L106.912 31.0928C102.847 21.6854 96.6235 14.1797 88.2516 8.59839L87.6969 9.43044ZM105.994 31.4894L105.076 31.8861C109.005 40.9792 110.979 51.1587 110.979 62.4404H111.979H112.979C112.979 50.9222 110.963 40.4677 106.912 31.0928L105.994 31.4894ZM111.979 62.4404H110.979V72.1875H111.979H112.979V62.4404H111.979ZM111.979 72.1875H110.979C110.979 80.3065 109.908 88.0206 107.77 95.3339L108.73 95.6145L109.69 95.895C111.884 88.3883 112.979 80.4844 112.979 72.1875H111.979ZM108.73 95.6145L107.767 95.3437C105.749 102.52 102.559 108.839 98.2005 114.315L98.9829 114.937L99.7654 115.56C104.299 109.864 107.607 103.301 109.693 95.8852L108.73 95.6145ZM98.9829 114.937L98.1927 114.325C93.9677 119.773 88.3987 124.124 81.4593 127.37L81.8829 128.275L82.3066 129.181C89.5031 125.815 95.3342 121.274 99.7732 115.55L98.9829 114.937ZM81.8829 128.275L81.4658 127.367C74.6753 130.484 66.3899 132.063 56.5749 132.063V133.063V134.063C66.596 134.063 75.1825 132.451 82.3001 129.184L81.8829 128.275ZM56.5749 107.242V108.242C66.0662 108.242 73.2459 104.943 77.9155 98.2379L77.0949 97.6665L76.2743 97.095C72.052 103.158 65.5517 106.242 56.5749 106.242V107.242ZM77.0949 97.6665L77.9135 98.2409C82.6491 91.4926 84.9349 81.2118 84.9349 67.5704H83.9349H82.9349C82.9349 81.0611 80.6608 90.8443 76.2764 97.092L77.0949 97.6665ZM83.9349 67.5704H84.9349C84.9349 53.148 82.5981 42.558 77.7257 36.0218L76.9239 36.6194L76.1222 37.2171C80.5977 43.2209 82.9349 53.2649 82.9349 67.5704H83.9349ZM76.9239 36.6194L77.7377 36.0382C72.9601 29.3497 65.8489 26.0435 56.5749 26.0435V27.0435V28.0435C65.3129 28.0435 71.7677 31.1212 76.1102 37.2007L76.9239 36.6194ZM56.5749 27.0435V26.0435C47.0832 26.0435 39.8529 29.3425 35.0702 36.0382L35.8839 36.6194L36.6977 37.2007C41.035 31.1284 47.5986 28.0435 56.5749 28.0435V27.0435ZM35.8839 36.6194L35.0752 36.0313C30.3244 42.5637 28.0439 53.0327 28.0439 67.2284H29.0439H30.0439C30.0439 53.1522 32.3235 43.2152 36.6927 37.2076L35.8839 36.6194ZM29.0439 67.2284H28.0439C28.0439 80.9785 30.2712 91.313 34.8876 98.0601L35.7129 97.4955L36.5382 96.9308C32.2627 90.6819 30.0439 80.8384 30.0439 67.2284H29.0439ZM35.7129 97.4955L34.8944 98.0699C39.6767 104.885 46.9673 108.242 56.5749 108.242V107.242V106.242C47.4866 106.242 40.8692 103.102 36.5315 96.921L35.7129 97.4955ZM127.317 105.874H126.317V106.874H127.317V105.874ZM127.317 76.6335L126.471 76.1007L126.317 76.3449V76.6335H127.317ZM174.684 1.39345L175.231 0.556359L174.379 -9.29832e-05L173.838 0.860683L174.684 1.39345ZM196.401 15.5864L197.247 16.1187L197.77 15.2869L196.948 14.7494L196.401 15.5864ZM155.874 80.0535L155.027 79.5212L154.683 80.0694L155.042 80.6082L155.874 80.0535ZM158.268 83.6445L157.436 84.1992L157.733 84.6445H158.268V83.6445ZM232.995 83.6445H233.995V82.6445H232.995V83.6445ZM232.995 105.874V106.874H233.995V105.874H232.995ZM192.81 129.814H191.81V130.814H192.81V129.814ZM192.81 39.8685V38.8685H191.81V39.8685H192.81ZM218.631 39.8685H219.631V38.8685H218.631V39.8685ZM218.631 129.814V130.814H219.631V129.814H218.631ZM127.317 105.874H128.317V76.6335H127.317H126.317V105.874H127.317ZM127.317 76.6335L128.163 77.1662L175.53 1.92621L174.684 1.39345L173.838 0.860683L126.471 76.1007L127.317 76.6335ZM174.684 1.39345L174.137 2.23053L195.854 16.4235L196.401 15.5864L196.948 14.7494L175.231 0.556359L174.684 1.39345ZM196.401 15.5864L195.554 15.0542L155.027 79.5212L155.874 80.0535L156.72 80.5857L197.247 16.1187L196.401 15.5864ZM155.874 80.0535L155.042 80.6082L157.436 84.1992L158.268 83.6445L159.1 83.0898L156.706 79.4987L155.874 80.0535ZM158.268 83.6445V84.6445H232.995V83.6445V82.6445H158.268V83.6445ZM232.995 83.6445H231.995V105.874H232.995H233.995V83.6445H232.995ZM232.995 105.874V104.874H127.317V105.874V106.874H232.995V105.874ZM192.81 129.814H193.81V39.8685H192.81H191.81V129.814H192.81ZM192.81 39.8685V40.8685H218.631V39.8685V38.8685H192.81V39.8685ZM218.631 39.8685H217.631V129.814H218.631H219.631V39.8685H218.631ZM218.631 129.814V128.814H192.81V129.814V130.814H218.631V129.814Z" fill="url(#paint0_linear_0_550)" mask="url(#path-1-outside-1_0_550)"/>
<defs>
<linearGradient id="paint0_linear_0_550" x1="27.7122" y1="129.814" x2="79.3198" y2="-21.1597" gradientUnits="userSpaceOnUse">
<stop stop-color="#585858"/>
<stop offset="1" stop-color="#869F9B"/>
</linearGradient>
</defs>
</svg>

<svg xmlns="http://www.w3.org/2000/svg" width="234" height="135" fill="none" viewBox="0 0 234 135"><mask id="b" width="235" height="135" x="-.747" y="-.186" fill="#000" maskUnits="userSpaceOnUse"><path fill="#fff" d="M-.747-.186h235v135h-235z"/><path d="M56.575 133.063q-14.877 0-25.48-4.788-10.6-4.959-17.27-13.338-6.498-8.38-9.747-19.322Q1 84.499 1 72.188V62.44q0-17.1 5.985-30.95Q12.97 17.637 25.282 9.43t31.293-8.208T87.697 9.43q12.312 8.208 18.297 22.06 5.985 13.85 5.985 30.95v9.748q0 12.31-3.249 23.427-3.078 10.943-9.747 19.322-6.498 8.379-17.1 13.338-10.431 4.788-25.308 4.788m0-25.821q13.851 0 20.52-9.576 6.84-9.747 6.84-30.096 0-21.545-7.011-30.95-6.84-9.576-20.35-9.576-13.85 0-20.69 9.576-6.84 9.405-6.84 30.608 0 20.52 6.669 30.268 6.84 9.746 20.862 9.746m70.742-1.368v-29.24l47.367-75.24 21.717 14.192-40.527 64.468 2.394 3.59h74.727v22.23zm65.493 23.94V39.868h25.821v89.946z"/></mask><path fill="#fff" fill-opacity=".21" d="M56.575 133.063q-14.877 0-25.48-4.788-10.6-4.959-17.27-13.338-6.498-8.38-9.747-19.322Q1 84.499 1 72.188V62.44q0-17.1 5.985-30.95Q12.97 17.637 25.282 9.43t31.293-8.208T87.697 9.43q12.312 8.208 18.297 22.06 5.985 13.85 5.985 30.95v9.748q0 12.31-3.249 23.427-3.078 10.943-9.747 19.322-6.498 8.379-17.1 13.338-10.431 4.788-25.308 4.788m0-25.821q13.851 0 20.52-9.576 6.84-9.747 6.84-30.096 0-21.545-7.011-30.95-6.84-9.576-20.35-9.576-13.85 0-20.69 9.576-6.84 9.405-6.84 30.608 0 20.52 6.669 30.268 6.84 9.746 20.862 9.746m70.742-1.368v-29.24l47.367-75.24 21.717 14.192-40.527 64.468 2.394 3.59h74.727v22.23zm65.493 23.94V39.868h25.821v89.946z"/><path fill="url(#a)" d="m31.096 128.275-.424.906.012.006zm-17.271-13.338-.79.613.008.01zM4.078 95.615l-.964.266.003.01.002.008zm2.907-64.126-.918-.396zM25.282 9.43l-.555-.832zm62.415 0-.56.829.005.003zm18.297 22.06-.918.396zm2.736 64.125-.96-.281-.003.01zm-9.747 19.322-.782-.622-.008.01zm-17.1 13.338.417.909.007-.003zm-4.788-30.609-.819-.574-.002.003zm-.171-61.047-.814.582.006.008.006.008zm-41.04 0 .809.589.005-.007zm-.171 60.877-.825.564.006.01zm20.862 35.567v-1c-9.814 0-18.16-1.579-25.068-4.699l-.411.911-.412.912c7.228 3.264 15.87 4.876 25.89 4.876zm-25.48-4.788.425-.905c-6.942-3.247-12.571-7.601-16.913-13.055l-.782.622-.782.623c4.55 5.718 10.435 10.256 17.63 13.621zm-17.27-13.338.79-.612c-4.25-5.481-7.445-11.809-9.578-18.995l-.96.285-.958.284c2.199 7.406 5.502 13.96 9.916 19.651zM4.078 95.615l.964-.267Q2 84.372 2 72.188H0Q0 84.626 3.114 95.88zM1 72.188h1V62.44H0v9.748zm0-9.748h1c0-11.28 1.974-21.46 5.903-30.554l-.918-.397-.918-.396C2.017 40.468 0 50.923 0 62.44zm5.985-30.95.918.396c3.915-9.06 9.89-16.26 17.934-21.623l-.555-.833-.555-.832c-8.372 5.582-14.595 13.087-18.66 22.495zM25.282 9.43l.555.832c8.003-5.335 18.226-8.04 30.738-8.04v-2C43.779.222 33.14 2.99 24.727 8.598zm31.293-8.208v1c12.513 0 22.676 2.705 30.562 8.037l.56-.829.56-.828C79.955 2.989 69.37.222 56.575.222zM87.697 9.43l-.555.832c8.044 5.363 14.019 12.564 17.934 21.624l.918-.397.918-.396c-4.065-9.408-10.288-16.913-18.66-22.495zm18.297 22.06-.918.396c3.929 9.093 5.903 19.273 5.903 30.554h2c0-11.518-2.016-21.972-6.067-31.347zm5.985 30.95h-1v9.748h2V62.44zm0 9.748h-1q-.001 12.177-3.209 23.146l.96.28.96.281q3.29-11.261 3.289-23.707zm-3.249 23.427-.963-.271c-2.018 7.176-5.208 13.495-9.566 18.971l.782.622.782.623c4.534-5.696 7.842-12.259 9.928-19.675zm-9.747 19.322-.79-.612c-4.225 5.448-9.794 9.799-16.734 13.045l.424.905.424.906c7.196-3.366 13.027-7.907 17.466-13.631zm-17.1 13.338-.417-.908c-6.79 3.117-15.076 4.696-24.891 4.696v2c10.021 0 18.608-1.612 25.725-4.879zm-25.308-21.033v1c9.491 0 16.67-3.299 21.34-10.004l-.82-.572-.82-.571c-4.223 6.063-10.723 9.147-19.7 9.147zm20.52-9.576.819.575c4.735-6.748 7.02-17.03 7.02-30.67h-2c0 13.49-2.273 23.273-6.658 29.521zm6.84-30.096h1c0-14.422-2.337-25.012-7.21-31.548l-.801.597-.802.598c4.476 6.004 6.813 16.048 6.813 30.353zm-7.011-30.95.814-.582c-4.778-6.688-11.89-9.994-21.163-9.994v2c8.738 0 15.193 3.077 19.535 9.157zm-20.35-9.576v-1c-9.49 0-16.721 3.299-21.504 9.994l.814.581.814.582c4.337-6.073 10.9-9.157 19.877-9.157zm-20.69 9.575-.809-.588c-4.75 6.533-7.031 17.002-7.031 31.197h2c0-14.076 2.28-24.013 6.649-30.02zm-6.84 30.61h-1c0 13.75 2.227 24.084 6.844 30.831l.825-.564.825-.565c-4.275-6.25-6.494-16.093-6.494-29.703zm6.669 30.267-.819.574c4.783 6.815 12.073 10.172 21.68 10.172v-2c-9.087 0-15.705-3.14-20.042-9.321zm91.604 8.378h-1v1h1zm0-29.24-.846-.533-.154.244v.288zm47.367-75.24.547-.838-.852-.556-.541.86zm21.717 14.192.846.533.523-.832-.822-.538zm-40.527 64.468-.847-.533-.344.548.359.54zm2.394 3.59-.832.555.297.445h.535zm74.727 0h1v-1h-1zm0 22.23v1h1v-1zm-40.185 23.94h-1v1h1zm0-89.945v-1h-1v1zm25.821 0h1v-1h-1zm0 89.945v1h1v-1zm-91.314-23.94h1v-29.24h-2v29.24zm0-29.24.846.532 47.367-75.24-.846-.533-.846-.532-47.367 75.24zm47.367-75.24-.547.837 21.717 14.193.547-.838.547-.837L175.231.556zm21.717 14.192-.847-.532-40.527 64.467.847.532.846.533 40.527-64.467zm-40.527 64.468-.832.554 2.394 3.591.832-.555.832-.554-2.394-3.591zm2.394 3.59v1h74.727v-2h-74.727zm74.727 0h-1v22.23h2v-22.23zm0 22.23v-1H127.317v2h105.678zm-40.185 23.94h1V39.869h-2v89.945zm0-89.945v1h25.821v-2H192.81zm25.821 0h-1v89.945h2V39.869zm0 89.945v-1H192.81v2h25.821z" mask="url(#b)"/><defs><linearGradient id="a" x1="27.712" x2="79.32" y1="129.814" y2="-21.16" gradientUnits="userSpaceOnUse"><stop stop-color="#585858"/><stop offset="1" stop-color="#869f9b"/></linearGradient></defs></svg>
